site/icons/favicon-inactive.svg

<?xml version="1.0" encoding="UTF-8" standalone="no"?>
<!-- This file was generated by dvisvgm 3.4.3 -->
<svg xmlns:xlink="http://www.w3.org/1999/xlink" xmlns="http://www.w3.org/2000/svg" xmlns:svg="http://www.w3.org/2000/svg" version="1.1" width="16px" height="16px" viewBox="-62.037364 -71.703923 19.779637 12.309501" id="svg2">
  <defs id="defs1">
    <path id="g1-65" d="m 6.703229,-2.944275 0.643167,1.629356 c 0.05717,0.142926 0.085755,0.285852 0.085755,0.400193 0,0.214389 -0.128633,0.371607 -0.285852,0.3859 L 6.388791,-0.485948 V 0.042878 C 8.389755,0 8.389755,0 8.561266,0 8.718485,0 8.718485,0 10.819497,0.042878 V -0.485948 L 10.476475,-0.528826 C 10.076282,-0.585997 9.876186,-0.743215 9.690382,-1.1577 L 5.988599,-9.804723 H 4.973824 C 4.773728,-9.275896 4.630802,-8.889996 4.573631,-8.732778 4.373535,-8.175366 4.230609,-7.803759 4.159146,-7.64654 l -2.58696,6.260158 C 1.329212,-0.828971 1.086237,-0.557411 0.7718,-0.528826 L 0.343022,-0.485948 V 0.042878 C 0.71463,0.028585 1.04336,0.028585 1.1577,0.014293 1.557893,0 1.829453,0 1.958086,0 2.086719,0 2.358279,0 2.758471,0.014293 2.887105,0.028585 3.187249,0.028585 3.57315,0.042878 V -0.485948 L 2.85852,-0.528826 C 2.615546,-0.543119 2.444034,-0.743215 2.444034,-0.986189 c 0,-0.100048 0.028586,-0.242974 0.071463,-0.357315 l 0.600289,-1.600771 z m -1.81516,-4.430706 1.48643,3.63032 h -2.91569 z"/>
    <path id="g1-90" d="M 8.904289,-9.73326 C 5.302554,-9.690382 5.302554,-9.690382 5.030995,-9.690382 L 1.143408,-9.73326 v 2.315401 h 0.528826 l 0.114341,-0.786092 c 0.085755,-0.585997 0.228681,-0.65746 1.243456,-0.65746 H 6.202988 L 1.829453,-2.486912 C 1.42926,-1.915208 1.04336,-1.386382 0.343022,-0.500241 V 0.042878 C 2.386864,0.014293 3.344468,0 4.67368,0 5.988599,0 6.860447,0.014293 8.732778,0.042878 8.74707,-0.828971 8.832826,-1.772282 8.961459,-2.486912 H 8.389755 l -0.214389,1.114823 c -0.071463,0.3859 -0.428778,0.557411 -1.1577,0.557411 H 3.072909 l 4.645094,-6.846155 c 0.400193,-0.571704 0.728923,-1.014774 1.186286,-1.572186 z"/>
  </defs>
  <g id="page1" transform="translate(-0.34302104,0.25027524)">
    <style id="style1"> g &gt; g { color: gray; } </style>
    <g fill="currentColor" transform="matrix(1,0,0,1.25,0,14.924575)" id="g2">
      <use x="-62.037365" y="-59.698296" xlink:href="#g1-65" id="use1"/>
      <use x="-50.876163" y="-59.698296" xlink:href="#g1-90" id="use2"/>
    </g>
  </g>
</svg>

<?xml version='1.0' encoding='UTF-8'?>
<!-- This file was generated by dvisvgm 3.4.3 -->
<svg version='1.1' xmlns='http://www.w3.org/2000/svg' xmlns:xlink='http://www.w3.org/1999/xlink' width='20.694253pt' height='12.202026pt' viewBox='-59.546704 -71.703923 20.694253 12.202026'>
<defs>
<path id='g1-65' d='M6.703229-2.944275L7.346396-1.314919C7.403566-1.171993 7.432151-1.029067 7.432151-.914726C7.432151-.700337 7.303518-.543119 7.146299-.528826L6.388791-.485948V.042878C8.389755 0 8.389755 0 8.561266 0C8.718485 0 8.718485 0 10.819497 .042878V-.485948L10.476475-.528826C10.076282-.585997 9.876186-.743215 9.690382-1.1577L5.988599-9.804723H4.973824C4.773728-9.275896 4.630802-8.889996 4.573631-8.732778C4.373535-8.175366 4.230609-7.803759 4.159146-7.64654L1.572186-1.386382C1.329212-.828971 1.086237-.557411 .7718-.528826L.343022-.485948V.042878C.71463 .028585 1.04336 .028585 1.1577 .014293C1.557893 0 1.829453 0 1.958086 0S2.358279 0 2.758471 .014293C2.887105 .028585 3.187249 .028585 3.57315 .042878V-.485948L2.85852-.528826C2.615546-.543119 2.444034-.743215 2.444034-.986189C2.444034-1.086237 2.47262-1.229163 2.515497-1.343504L3.115786-2.944275H6.703229ZM4.888069-7.374981L6.374499-3.744661H3.458809L4.888069-7.374981Z'/>
<path id='g1-90' d='M8.904289-9.73326C5.302554-9.690382 5.302554-9.690382 5.030995-9.690382L1.143408-9.73326V-7.417859H1.672234L1.786575-8.203951C1.87233-8.789948 2.015256-8.861411 3.030031-8.861411H6.202988L1.829453-2.486912C1.42926-1.915208 1.04336-1.386382 .343022-.500241V.042878C2.386864 .014293 3.344468 0 4.67368 0C5.988599 0 6.860447 .014293 8.732778 .042878C8.74707-.828971 8.832826-1.772282 8.961459-2.486912H8.389755L8.175366-1.372089C8.103903-.986189 7.746588-.814678 7.017666-.814678H3.072909L7.718003-7.660833C8.118196-8.232537 8.446926-8.675607 8.904289-9.233019V-9.73326Z'/>
</defs>
<g id='page1'>
<style> g > g { color: gray; } </style>
<g fill='currentColor' transform='matrix(1 0 0 1.25 0 14.924575)'>
<use x='-59.546704' y='-59.698296' xlink:href='#g1-65'/>
<use x='-48.385502' y='-59.698296' xlink:href='#g1-90'/>
</g>
</g>
</svg>
